Origami/32x32/apps/appimagekit-gravit-designer.svg

<svg width="32" height="32" version="1.1" viewBox="0 0 32 32" xmlns="http://www.w3.org/2000/svg">
 <circle cx="16" cy="17" r="14" style="opacity:.2"/>
 <path d="m16 2c-0.709726 0.00362-1.418148 0.061212-2.119141 0.1722657-1.311315 1.2114363-10.695616 10.529552-11.686718 11.606054-0.0125223 0.078738-0.0243712 0.157582-0.0355467 0.236523 0.281871-0.230363 0.7086638-0.595734 1.196289-1.037694 0.2403905-0.217878 0.5368654-0.47532 0.6589844-0.572852 0.1221183-0.097533 0.3477771-0.292625 0.5003906-0.433398 0.4238558-0.390973 1.4262227-1.279257 1.7199216-1.524415 0.1440831-0.12027 0.7039515-0.6126692 1.2441408-1.0937498 0.5401893-0.4810799 1.2384883-1.0962602 1.5517579-1.3671875 0.3132696-0.2709266 0.962969-0.8618015 1.4437497-1.3125 0.927319-0.8692965 3.791587-3.4094815 4.109765-3.6449217 0.103943-0.076914 0.200579-0.1289249 0.214649-0.1148437 0.0311 0.031118-0.149371 0.3338804-0.786133 1.3166015-0.267188 0.4123547-1.3104 2.0294569-2.31875 3.5929685-1.008351 1.5635116-2.2597482 3.5032147-2.780859 4.3107417-0.5211101 0.807529-1.6727963 2.593064-2.559375 3.967579-0.8865786 1.374515-2.043404 3.166146-2.5703123 3.982617-0.3235834 0.501409-0.5673529 0.897225-0.7410157 1.19082 2.0106343 4.928221 6.6416788 8.290021 11.950346 8.674805 0.399811 0.0046-0.224453-0.02695 0.399811 0.0046 1.749573-6.569898 3.208388-17.903334 7.059061-25.953315 0.162175-0.3390332-0.433242-0.4138531-0.356096-0.5842926-1.898758-0.9259266-3.982437-1.4101556-6.094919-1.4164062z" style="fill:#c63166"/>
 <path d="m15.133203 2.0505859a14 14 0 0 0 -0.898242 0.075195 14 14 0 0 1 0.898242 -0.075195z" style="fill:#d8d342"/>
 <path d="m13.873047 3.1796875a14 14 0 0 0 -11.673828 11.59375c0.9992662-1.084363 10.349516-10.369106 11.673828-11.59375zm0.925781 0.734375c-0.01407-0.014081-0.110901 0.0363679-0.214844 0.1132813-0.318178 0.23544-3.182056 2.777188-4.109375 3.6464843-0.4807799 0.4506985-1.1320425 1.0415734-1.4453121 1.3125-0.3132696 0.2709273-1.010592 0.8861072-1.5507813 1.3671879-0.5401893 0.48108-1.1000575 0.97348-1.2441406 1.09375-0.2936987 0.245158-1.2968473 1.132464-1.7207031 1.523437-0.1526135 0.140772-0.3778817 0.336061-0.5 0.433594-0.122119 0.09753-0.4178127 0.354387-0.6582031 0.572265-0.4876253 0.44196-0.9153946 0.808702-1.1972657 1.039063a14 14 0 0 0 -0.1386719 1.365234 14 14 0 0 0 1.0253907 4.888672c-8.744e-4 0.001478-0.0030354 0.004387-0.0039063 0.00586 0.0106254 0.026043 0.0243848 0.050217 0.0351563 0.076171a14 14 0 0 0 0.1699219 0.378907c0.0184886 0.041071 0.039781 0.080254 0.0585937 0.121093 0.1447939-0.236062 0.2700001-0.444472 0.4785156-0.767578 0.5269083-0.816471 1.6837339-2.607906 2.5703125-3.982422 0.8865787-1.374515 2.0374837-3.161221 2.5585938-3.96875 0.5211108-0.807526 1.7728986-2.747035 2.7812496-4.3105464 1.00835-1.5635116 2.051172-3.1794421 2.31836-3.5917968 0.636762-0.9827213 0.81821-1.2852885 0.787109-1.3164063z" style="opacity:.2"/>
 <path d="m13.872657 2.1804688a14 14 0 0 0 -11.674415 11.592382c0.9992664-1.084362 10.350103-10.367738 11.674415-11.592382z" style="fill:#b8da6c"/>
 <path d="m2.1982422 13.772851c-5.772e-4 6.27e-4 -0.00353 0.0048-0.0041 0.0055a14 14 0 0 0 -0.031445 0.205079 14 14 0 0 1 0.035547 -0.210548z" style="fill:#d8d342"/>
 <path d="m20.541797 2.7833984v0.00274a14 14 0 0 1 0.352735 0.1162079 14 14 0 0 0 -0.352735 -0.1189453z" style="fill:#d8d342"/>
 <path d="m20.894532 2.9023438a14 14 0 0 1 1.06914 0.4580078 14 14 0 0 0 -1.06914 -0.4580078z" style="fill:#d8d342"/>
 <path d="m21.963672 3.3603516a14 14 0 0 1 0.129883 0.057422l0.0014-0.00136a14 14 0 0 0 -0.13125 -0.056055z" style="fill:#d8d342"/>
 <path d="m14.798242 2.9132812c-0.01407-0.0140811-0.110706 0.0379302-0.214649 0.1148438-0.318178 0.2354402-3.182446 2.7756254-4.109765 3.6449217-0.4807807 0.4506985-1.1304801 1.0415734-1.4437497 1.3125-0.3132696 0.2709273-1.0115686 0.8861076-1.5517579 1.3671875-0.5401893 0.4810806-1.1000577 0.9734798-1.2441408 1.0937498-0.2936987 0.245158-1.296066 1.133442-1.7199218 1.524415-0.1526135 0.140772-0.3782723 0.335865-0.5003906 0.433398-0.122119 0.09753-0.4185939 0.354974-0.6589844 0.572852-0.4876252 0.44196-0.914418 0.807333-1.1962891 1.037694a14 14 0 0 0 -0.1585937 1.985157 14 14 0 0 0 1.7964843 6.845508v-0.03281a14 14 0 0 1 -0.1257811 -0.211916 14 14 0 0 1 -0.2666016 -0.553712 14 14 0 0 1 -0.3623048 -0.772461c0.1736628-0.293595 0.4174323-0.689411 0.7410157-1.19082 0.5269083-0.816471 1.6837339-2.608102 2.5703125-3.982617 0.8865787-1.374515 2.0382649-3.16005 2.559375-3.967579 0.5211108-0.807527 1.772508-2.7472301 2.780859-4.3107417 1.00835-1.5635116 2.051562-3.1806138 2.31875-3.5929685 0.636762-0.9827211 0.817234-1.2854837 0.786133-1.3166015z" style="fill:#b8da6c"/>
 <path d="m29.908399 17.456055-12.467383 12.467382a14 14 0 0 0 12.467383 -12.467382z" style="fill:#778b3c"/>
 <path d="m22.093555 3.4177734c-0.07684 0.1697798-0.13219 0.2975854-0.293946 0.6357423-3.850673 8.0499813-6.278067 16.72202-6.67871 23.854687-0.03667 0.652895-0.08602 1.454998-0.109375 1.781446l-0.01914 0.254296c0.335088 0.030788 0.671179 0.049485 1.007616 0.056055 0.481335-7e-4 0.962312-0.02629 1.441016-0.07656l12.467383-12.467385c0.055819-0.48343 0.086394-0.969442 0.091601-1.456055-0.008461-5.362115-3.078883-10.248349-7.906445-12.582227zm-4.652539 26.505664c6.569137-0.687873 11.763869-5.873486 12.463281-12.441405-0.699412 6.567919-5.894144 11.753532-12.463281 12.441405zm-2.448633 0.02051v0.0055z" style="fill:#eddf36"/>
 <path d="M 16 2 A 14 14 0 0 0 2 16 A 14 14 0 0 0 2.0214844 16.585938 A 14 14 0 0 1 16 3 A 14 14 0 0 1 29.978516 16.414062 A 14 14 0 0 0 30 16 A 14 14 0 0 0 16 2 z" style="fill:#ffffff;opacity:.2"/>
 <path d="m29.908203 17.457031l-12.466797 12.466797a14 14 0 0 0 1.183594 -0.183594l11.095703-11.097656a14 14 0 0 0 0.1875 -1.185547z" style="opacity:.2"/>
</svg>

<svg xmlns="http://www.w3.org/2000/svg" width="32" height="32" version="1.1" viewBox="0 0 32 32">
 <circle style="opacity:0.2" cx="16" cy="17" r="14"/>
 <path style="fill:#c63166" d="m 16,2 c -0.709726,0.00362 -1.418148,0.061212 -2.119141,0.1722657 C 12.569544,3.383702 3.1852435,12.701818 2.1941407,13.77832 2.1816184,13.857058 2.1697695,13.935902 2.158594,14.014843 2.440465,13.78448 2.8672578,13.419109 3.354883,12.977149 3.5952735,12.759271 3.8917484,12.501829 4.0138674,12.404297 4.1359857,12.306764 4.3616445,12.111672 4.514258,11.970899 4.9381138,11.579926 5.9404807,10.691642 6.2341796,10.446484 6.3782627,10.326214 6.9381311,9.8338148 7.4783204,9.3527342 8.0185097,8.8716543 8.7168087,8.256474 9.0300783,7.9855467 c 0.3132696,-0.2709266 0.962969,-0.8618015 1.4437497,-1.3125 0.927319,-0.8692965 3.791587,-3.4094815 4.109765,-3.6449217 0.103943,-0.076914 0.200579,-0.1289249 0.214649,-0.1148437 0.0311,0.031118 -0.149371,0.3338804 -0.786133,1.3166015 -0.267188,0.4123547 -1.3104,2.0294569 -2.31875,3.5929685 -1.008351,1.5635116 -2.2597482,3.5032147 -2.780859,4.3107417 -0.5211101,0.807529 -1.6727963,2.593064 -2.559375,3.967579 -0.8865786,1.374515 -2.043404,3.166146 -2.5703123,3.982617 -0.3235834,0.501409 -0.5673529,0.897225 -0.7410157,1.19082 2.0106343,4.928221 6.6416788,8.290021 11.950346,8.674805 0.399811,0.0046 -0.224453,-0.02695 0.399811,0.0046 C 17.141527,23.384116 18.600342,12.05068 22.451015,4.0006988 22.61319,3.6616656 22.017773,3.5868457 22.094919,3.4164062 20.196161,2.4904796 18.112482,2.0062506 16,2 Z"/>
 <path style="fill:#d8d342" d="m 15.133203,2.0505859 a 14,14 0 0 0 -0.898242,0.075195 14,14 0 0 1 0.898242,-0.075195 z"/>
 <path style="opacity:0.2" d="M 13.873047 3.1796875 A 14 14 0 0 0 2.1992188 14.773438 C 3.198485 13.689075 12.548735 4.4043316 13.873047 3.1796875 z M 14.798828 3.9140625 C 14.784758 3.8999815 14.687927 3.9504304 14.583984 4.0273438 C 14.265806 4.2627838 11.401928 6.8045318 10.474609 7.6738281 C 9.9938291 8.1245266 9.3425665 8.7154015 9.0292969 8.9863281 C 8.7160273 9.2572554 8.0187049 9.8724353 7.4785156 10.353516 C 6.9383263 10.834596 6.3784581 11.326996 6.234375 11.447266 C 5.9406763 11.692424 4.9375277 12.57973 4.5136719 12.970703 C 4.3610584 13.111475 4.1357902 13.306764 4.0136719 13.404297 C 3.8915529 13.501827 3.5958592 13.758684 3.3554688 13.976562 C 2.8678435 14.418522 2.4400742 14.785264 2.1582031 15.015625 A 14 14 0 0 0 2.0195312 16.380859 A 14 14 0 0 0 3.0449219 21.269531 C 3.0440475 21.271009 3.0418865 21.273918 3.0410156 21.275391 C 3.051641 21.301434 3.0654004 21.325608 3.0761719 21.351562 A 14 14 0 0 0 3.2460938 21.730469 C 3.2645824 21.77154 3.2858748 21.810723 3.3046875 21.851562 C 3.4494814 21.6155 3.5746876 21.40709 3.7832031 21.083984 C 4.3101114 20.267513 5.466937 18.476078 6.3535156 17.101562 C 7.2400943 15.727047 8.3909993 13.940341 8.9121094 13.132812 C 9.4332202 12.325286 10.685008 10.385777 11.693359 8.8222656 C 12.701709 7.258754 13.744531 5.6428235 14.011719 5.2304688 C 14.648481 4.2477475 14.829929 3.9451803 14.798828 3.9140625 z"/>
 <path style="fill:#b8da6c" d="M 13.872657,2.1804688 A 14,14 0 0 0 2.1982422,13.772851 C 3.1975086,12.688489 12.548345,3.4051129 13.872657,2.1804688 Z"/>
 <path style="fill:#d8d342" d="m 2.1982422,13.772851 c -5.772e-4,6.27e-4 -0.00353,0.0048 -0.0041,0.0055 a 14,14 0 0 0 -0.031445,0.205079 14,14 0 0 1 0.035547,-0.210548 z"/>
 <path style="fill:#d8d342" d="m 20.541797,2.7833984 0,0.00274 A 14,14 0 0 1 20.894532,2.9023463 14,14 0 0 0 20.541797,2.783401 Z"/>
 <path style="fill:#d8d342" d="m 20.894532,2.9023438 a 14,14 0 0 1 1.06914,0.4580078 14,14 0 0 0 -1.06914,-0.4580078 z"/>
 <path style="fill:#d8d342" d="m 21.963672,3.3603516 a 14,14 0 0 1 0.129883,0.057422 c 0,0 0.0014,-0.00136 0.0014,-0.00136 a 14,14 0 0 0 -0.13125,-0.056055 z"/>
 <path style="fill:#b8da6c" d="M 14.798242,2.9132812 C 14.784172,2.8992001 14.687536,2.9512114 14.583593,3.028125 14.265415,3.2635652 11.401147,5.8037504 10.473828,6.6730467 9.9930473,7.1237452 9.3433479,7.7146201 9.0300783,7.9855467 8.7168087,8.256474 8.0185097,8.8716543 7.4783204,9.3527342 6.9381311,9.8338148 6.3782627,10.326214 6.2341796,10.446484 c -0.2936987,0.245158 -1.296066,1.133442 -1.7199218,1.524415 -0.1526135,0.140772 -0.3782723,0.335865 -0.5003906,0.433398 -0.122119,0.09753 -0.4185939,0.354974 -0.6589844,0.572852 -0.4876252,0.44196 -0.914418,0.807333 -1.1962891,1.037694 A 14,14 0 0 0 2,16 14,14 0 0 0 3.7964843,22.845508 l 0,-0.03281 A 14,14 0 0 1 3.6707032,22.600782 14,14 0 0 1 3.4041016,22.04707 14,14 0 0 1 3.0417968,21.274609 c 0.1736628,-0.293595 0.4174323,-0.689411 0.7410157,-1.19082 0.5269083,-0.816471 1.6837339,-2.608102 2.5703125,-3.982617 0.8865787,-1.374515 2.0382649,-3.16005 2.559375,-3.967579 0.5211108,-0.807527 1.772508,-2.7472301 2.780859,-4.3107417 1.00835,-1.5635116 2.051562,-3.1806138 2.31875,-3.5929685 0.636762,-0.9827211 0.817234,-1.2854837 0.786133,-1.3166015 z"/>
 <path style="fill:#778b3c" d="M 29.908399,17.456055 17.441016,29.923437 A 14,14 0 0 0 29.908399,17.456055 Z"/>
 <path style="fill:#eddf36" d="m 22.093555,3.4177734 c -0.07684,0.1697798 -0.13219,0.2975854 -0.293946,0.6357423 -3.850673,8.0499813 -6.278067,16.7220203 -6.67871,23.8546873 -0.03667,0.652895 -0.08602,1.454998 -0.109375,1.781446 l -0.01914,0.254296 C 15.327472,29.974733 15.663563,29.99343 16,30 c 0.481335,-7e-4 0.962312,-0.02629 1.441016,-0.07656 L 29.908399,17.456055 C 29.964218,16.972625 29.994793,16.486613 30,16 29.991539,10.637885 26.921117,5.7516509 22.093555,3.4177734 Z M 17.441016,29.923437 c 6.569137,-0.687873 11.763869,-5.873486 12.463281,-12.441405 -0.699412,6.567919 -5.894144,11.753532 -12.463281,12.441405 z m -2.448633,0.02051 c 0,0 0,-0.0051 0,0.0055 z"/>
 <path style="opacity:0.2;fill:#ffffff" d="M 16 2 A 14 14 0 0 0 2 16 A 14 14 0 0 0 2.0214844 16.585938 A 14 14 0 0 1 16 3 A 14 14 0 0 1 29.978516 16.414062 A 14 14 0 0 0 30 16 A 14 14 0 0 0 16 2 z"/>
 <path style="opacity:0.2" d="M 29.908203 17.457031 L 17.441406 29.923828 A 14 14 0 0 0 18.625 29.740234 L 29.720703 18.642578 A 14 14 0 0 0 29.908203 17.457031 z"/>
</svg>
